X: 3300
T: AULD WATTIE
%R: jig
B: James Kerr "Merry Melodies" v.3 p.32 #300
Z: 2016 John Chambers <jc:trillian.mit.edu>
M: 6/8
L: 1/8
K: Am
|:\
e3  ABd | e2d B2d | e3  ABd | BAG ABd |\
e3  ABd | e2d B2d | eeg ddg | BAG ABd :|
|:\
eAB eAB | eAB e2d | eAB eAB | dBG ABd |\
eAB eAB | eAB e2d | eeg ddg | BAG ABd :|

%%sep 1 1 500
%%sep 1 1 500

